X:1
T:The Homewrecker
M:6/8
L:1/8
Q:80
C:Bob Worall
S:Jig
K:HP
[| e | \
a{g}a{g}ae2{A}e | \
{g}f2{e}f{g}fed | \
{g}ce{A}e{g}ec{d}A |
{g}B{d}B{e}B{gde}dcB | \
a{g}a{g}ae2{A}e | \
{g}f2{e}f{g}fed |
{g}c/2e3/2c{gde}dBe | \
{g}A{d}A{e}A{gAGAG}A2a{g}a{g}ae2{A}e | \
{g}f2{e}f{g}fed |
{g}ce{A}eac{d}A | \
{g}B{d}B{e}B{gde}dcB | \
a{g}a{g}ae2{A}e |
{g}f2{e}f{g}fed | \
{g}c/2e3/2c{gde}dBe | \
{g}A{d}A{e}A{gAGAG}A2|] |:
d | \
{g}c/2e3/2A{eAfA}e2c | \
{g}d{e}d{c}d{g}fed | \
{g}c/2e3/2A{eAfA}e2c |
{g}B{d}B{e}B{gde}dcB | \
{g}c/2e3/2A{eAfA}e2c | \
{g}d{e}d{c}d{g}fed |
{g}c/2e3/2c{gde}dBe | \
{g}A{d}A{e}A{gAGAG}A2 :: \
e |
{g}A{d}ce{gef}ece | \
{g}d{e}d{c}d{g}fed | \
e{g}e{A}eac{d}A |
{g}((3Bcd){c}d{g}dc{d}B | \
{g}A{d}ce{gef}ece | \
{g}d{e}d{c}d{g}fed |
{g}c/2e3/2c{gde}dBe | \
{g}A{d}A{e}A{gAGAG}A2:| [ | \
e |
a{g}a{g}a{g}af{g}e | \
f{g}f{e}f{g}fed | \
e{g}e{A}eac{d}A |
{g}((3Bcd){c}d{g}dc{d}B | \
a{g}a{g}a{g}af{g}e | \
f{g}f{e}f{g}fed |
{g}c/2e3/2c{gde}dBe | \
{g}A{d}A{e}A{gAGAG}A2a{g}a{g}a{g}af{g}e | \
f{g}f{e}f{g}fed |
e{g}e{A}eac{d}A | \
{g}((3Bcd){c}d{g}dc{d}B | \
{g}c/2e3/2A{eAfA}e2c |
{g}d{e}d{c}d{g}fed | \
{g}c/2e3/2c{gde}dBa | \
A{d}A{e}A{gAGAG}A2|]
